X:31
T:Scottiche de la petite montagne
R:scottiche
C:trad.
A:Jura
M:2/4
L:1/8
Q:1/4=180
K:C
g2a2|gf ed|c2d2|c2de|f2d2|1d2cd|e2c2|c4:|2e2c2|d2B2|c4|
|:ef ge|c2e2|e2de|f4|de fd|B2d2|1d2ce|g4:|2d2B2|c4||
